X:1
T:James Gibb editions
%%score [ ( 1 2 3 ) ( 4 5 6 7 ) ]
L:1/8
Q:1/4=158
M:4/2
K:Eb
V:1 treble nm="Midi_74"
V:2 treble 
V:3 treble 
V:4 bass nm="Midi_74"
V:5 bass 
V:6 bass 
V:7 bass 
V:1
"^J. S. B. Monsell\n(1811-75)""^Sing to the Lord a joyful song""^D.L.M.""^Joseph Barnby\n(1838-96)"!f! G4 | %1
 B4 c4 B4 (G2 F2) | E4 F4 G4 || B4 | G4 =A4 B4 (c2 d2) | c4 c4 B4 || B4 | G4 c4 B4 (G2 F2) | %8
 E4 F4 G4 || =A4 |"^i" B4 c4 d4 (e2 d2) | c4 c4 B4 || B4 | e4 e4 d4 (e2 d2) | c4 c4 B4 || E4 | %16
 A4 A4 G4 (=A2 B2) | c4 (B2 =A2) B4 || B4 | e4 e4 d4 (e2 d2) | c4 c4 B4 || !courtesy!_E4 | %22
 A4 G4 F4 !courtesy!_E4 | (D4 E4) F8 | E12 | A8 G8 | %26
V:2
 E4 | E4 E4 E4 D4 | E4 D4 E4 || F4 | G4 E4 D4 (E2 F2) | G4 (F2 E2) D4 || F4 | E4 E4 F4 D4 | %8
 E4 B,4 G4 || E4 | D4 F4 F4 (E2 F2) | G4 (F2 E2) D4 || B4 | e4 e4 d4 e2 d2 | c4 c4 B4 || E4 | %16
 E4 D4 G4 G4 | G4 ^F4 G4 || D4 | e4 e4 d4 e2 d2 | c4 c4 B4 || E4 | E4 =E4 F4 C4 | (B,4 E4) D8 | %24
 E12 | E8 E8 | %26
V:3
 x4 | x16 | x12 || x4 | x16 | x12 || x4 | x16 | x12 || x4 | x16 | x12 || x4 | G16 | E12 || x4 | %16
 x16 | x12 || x4 | E4 F4 F4 G2 F2 | =E4 F4 F4 || x4 | x16 | x16 | x12 | x16 | %26
V:4
 B,4 | G,4 A,4"^1" F,4 (B,2 A,2) | G,4 B,4 B,4 || B,4 | B,4 C4 B,4 B,4 | B,4 =A,4 B,4 || B,4 | %7
 B,4 A,4 (A,2 F,2) (B,2 A,2) | G,4 B,4 B,4 || C4 | B,4 =A,4 B,4 B,4 | B,4 =A,4 B,4 || B,4 | %13
 E4 E4 D4 (E2 D2) | C4 C4 B,4 || B,4 | C4 B,4 B,4 (E2 D2) | C4 C4 B,4 || B,4 | %19
"^1 Sing to the Lord a joyful song,\nLift up your hearts, your voices raise;\nTo us his gracious gifts belong,\nTo him our songs of love and praise.\n2 For life and love, for rest and food,\nFor daily help and nightly care,\nSing to the Lord, for he is good,\nAnd praise his name, for it is fair." E4 E4 D4 (E2 D2) | %20
"^(2nd half)\n5 For he is Lord of heav’n and earth,\nWhom angels serve and saints adore,\nThe Father, Son, and Spirit blest,\nTo whom all praise be now confessed." C4 C4 B,4 || %21
 G,4 | %22
"^3 For strength to those who on him wait\nHis truth to prove, his will to do,\nPraise we our God, for he is great,\nTrust in his name, for it is true.\n4 For joys untold, that from above\nCheer those who love his sweet employ,\nSing to our God, for he is love,\nExalt his name, for it is joy." A,4 B,4 A,4 G,4 | %23
 (F,4 G,4) A,8 | G,12 | C8 B,8 | %26
V:5
 E,4 | E,4 A,,4 B,,4 B,,4 | C,4 B,,4 E,4 || D,4 | E,4 C,4 G,4 F,4 | E,4 F,4 B,,4 || D,4 | %7
 E,4 C,4 D,4 B,,4 | C,4 D,4 E,4 || C,4 | G,4 F,4 (B,2 =A,2) (G,2 F,2) | E,4 F,4 B,4 || B,4 | %13
 E4 E4 D4 E2 D2 | C4 C4 B,4 || G,4 | F,4 B,,4 (E,2 D,2) (C,2 B,,2) | =A,,4 D,4 G,4 || B,4 | %19
 E4 E4 D4 E2 D2 | C4 C4 B,4 || E,4 | C,4 C,4 F,4 A,,4 | B,,8 B,,8 | E,12 | A,,8 E,8 | %26
V:6
 x4 | x16 | x12 || x4 | x16 | x12 || x4 | x16 | x12 || x4 | x16 | x12 || x4 | C12 C4 | %14
 B,4 A,4 G,4 || x4 | x16 | x12 || x4 | G,4 =A,4 B,4 =B,4 | C2 _B,2 _A,4 A,4 || x4 | x16 | x16 | %24
 x12 | x16 | %26
V:7
 x4 | x16 | x12 || x4 | x16 | x12 || x4 | x16 | x12 || x4 | x16 | x12 || B,,4 | C,4 E,4 G,4 G,,4 | %14
 A,,4 C,4 E,4 || x4 | x16 | x12 || x4 | E,4 C,4 B,,4 G,,4 | C,4 F,2 E,2 D,4 || x4 | x16 | x16 | %24
 x12 | x16 | %26

